packages/foundations/assets/icons/functional/images/editing/copy.svg

<svg xmlns="http://www.w3.org/2000/svg" width="32" height="32" fill="none"><path fill="#1A1C1F" fill-rule="evenodd" d="M14.093 3.046c-.929.155-1.843 1.044-2.037 1.982-.04.194-.053 2.511-.044 7.612l.015 7.333.114.303c.328.867 1.162 1.558 2.046 1.696.471.073 11.155.073 11.626 0 .987-.154 1.907-1.006 2.129-1.972.037-.159.056-2.683.057-7.495.001-7.991.018-7.569-.329-8.175-.364-.637-1.13-1.177-1.83-1.291-.402-.065-11.353-.059-11.747.007m11.724 2.123.156.156v14.363l-.156.156-.155.156H14.338l-.155-.156-.156-.156V5.325l.156-.156.155-.156h11.324zM5.786 10.123c-.601.207-1.194.697-1.479 1.222-.321.589-.307.216-.307 8.148 0 6.349.01 7.297.082 7.572a2.67 2.67 0 0 0 1.987 1.889c.396.083 11.465.083 11.862.001.687-.143 1.433-.697 1.761-1.306.253-.473.308-.804.308-1.865 0-.91-.007-.981-.124-1.202-.449-.85-1.631-.71-1.845.219-.03.131-.056.607-.056 1.056l-.002.818-.156.156-.155.156H6.338l-.155-.156-.156-.156V12.312l.156-.156.155-.156h1.42c1.54 0 1.632-.014 1.914-.298.223-.226.32-.445.317-.719a1.01 1.01 0 0 0-.619-.9c-.094-.035-.74-.056-1.733-.055-1.361.002-1.621.015-1.851.095"/></svg>

<svg width="32" height="32" viewBox="0 0 32 32" fill="none" xmlns="http://www.w3.org/2000/svg"><path d="M14.093 3.046 C 13.164 3.201,12.250 4.090,12.056 5.028 C 12.016 5.222,12.003 7.539,12.012 12.640 L 12.027 19.973 12.141 20.276 C 12.469 21.143,13.303 21.834,14.187 21.972 C 14.658 22.045,25.342 22.045,25.813 21.972 C 26.800 21.818,27.720 20.966,27.942 20.000 C 27.979 19.841,27.998 17.317,27.999 12.505 C 28.000 4.514,28.017 4.936,27.670 4.330 C 27.306 3.693,26.540 3.153,25.840 3.039 C 25.438 2.974,14.487 2.980,14.093 3.046 M25.817 5.169 L 25.973 5.325 25.973 12.507 L 25.973 19.688 25.817 19.844 L 25.662 20.000 20.000 20.000 L 14.338 20.000 14.183 19.844 L 14.027 19.688 14.027 12.507 L 14.027 5.325 14.183 5.169 L 14.338 5.013 20.000 5.013 L 25.662 5.013 25.817 5.169 M5.786 10.123 C 5.185 10.330,4.592 10.820,4.307 11.345 C 3.986 11.934,4.000 11.561,4.000 19.493 C 4.000 25.842,4.010 26.790,4.082 27.065 C 4.323 27.992,5.129 28.758,6.069 28.954 C 6.465 29.037,17.534 29.037,17.931 28.955 C 18.618 28.812,19.364 28.258,19.692 27.649 C 19.945 27.176,20.000 26.845,20.000 25.784 C 20.000 24.874,19.993 24.803,19.876 24.582 C 19.427 23.732,18.245 23.872,18.031 24.801 C 18.001 24.932,17.975 25.408,17.975 25.857 L 17.973 26.675 17.817 26.831 L 17.662 26.987 12.000 26.987 L 6.338 26.987 6.183 26.831 L 6.027 26.675 6.027 19.493 L 6.027 12.312 6.183 12.156 L 6.338 12.000 7.758 12.000 C 9.298 12.000,9.390 11.986,9.672 11.702 C 9.895 11.476,9.992 11.257,9.989 10.983 C 9.984 10.598,9.722 10.216,9.370 10.083 C 9.276 10.048,8.630 10.027,7.637 10.028 C 6.276 10.030,6.016 10.043,5.786 10.123 " fill="#1A1C1F" stroke="none" fill-rule="evenodd"></path></svg>
